StripePaymentSheet/StripePaymentSheet/Resources/StripePaymentSheet.xcassets/PaymentMethods/icon-pm-affirm.imageset/icon-pm-affirm.svg

<svg fill="none" height="21" viewBox="0 0 21 21" width="21" xmlns="http://www.w3.org/2000/svg"><g fill="#000"><path d="m4.12211 16.75c-.75856-1.1584-1.18992-2.5005-1.24839-3.8842-.05848-1.3836.25809-2.7573.9162-3.97569.65811-1.21837 1.63327-2.23606 2.82224-2.94532 1.18898-.70927 2.54753-1.08372 3.93184-1.08372 1.3843 0 2.7429.37445 3.9318 1.08372 1.189.70926 2.1642 1.72695 2.8223 2.94532.6581 1.21839.9747 2.59209.9162 3.97569-.0585 1.3837-.4898 2.7258-1.2484 3.8842h2.1493c.714-1.4559 1.0455-3.0696.9635-4.6892-.0821-1.6196-.575-3.19154-1.4325-4.56775-.8574-1.37622-2.051-2.51132-3.4682-3.29832-1.4173-.787-3.0116-1.19996-4.6325-1.19996-1.62101 0-3.21527.41296-4.63255 1.19996s-2.61088 1.9221-3.46829 3.29832c-.8574 1.37621-1.35037 2.94815-1.43242 4.56775-.082055 1.6196.2495 3.2333.96342 4.6892z"/><path d="m10.6737 8.01144c-1.39799 0-3.0071.65994-3.88083 1.3563l.79655 1.67966c.70044-.641 1.83337-1.18871 2.85418-1.18871.9713 0 1.5057.32341 1.5057.97901 0 .437-.3553.6876-1.0266.7488-2.5178.2316-4.47495 1.0197-4.47495 2.9529 0 1.5341 1.10526 2.4606 2.92407 2.4606.54676.0007 1.08388-.1442 1.55608-.42.4722-.2757.8624-.6723 1.1306-1.149v1.3184h2.2688v-5.5271c0-2.28286-1.5873-3.20503-3.6536-3.20503zm-.6626 7.21566c-.72811 0-1.1373-.3147-1.1373-.8304 0-1.0781 1.3106-1.3374 3.0289-1.3374 0 1.1276-.7543 2.1678-1.8931 2.1678z"/></g></svg>

<svg width="21" height="21" viewBox="0 0 21 21" fill="none" xmlns="http://www.w3.org/2000/svg">
<path d="M4.12211 16.75C3.36355 15.5916 2.93219 14.2495 2.87372 12.8658C2.81524 11.4822 3.13181 10.1085 3.78992 8.89011C4.44803 7.67174 5.42319 6.65405 6.61216 5.94479C7.80114 5.23552 9.15969 4.86107 10.544 4.86107C11.9283 4.86107 13.2869 5.23552 14.4758 5.94479C15.6648 6.65405 16.64 7.67174 17.2981 8.89011C17.9562 10.1085 18.2728 11.4822 18.2143 12.8658C18.1558 14.2495 17.7245 15.5916 16.9659 16.75H19.1152C19.8292 15.2941 20.1607 13.6804 20.0787 12.0608C19.9966 10.4412 19.5037 8.86926 18.6462 7.49305C17.7888 6.11683 16.5952 4.98173 15.178 4.19473C13.7607 3.40773 12.1664 2.99477 10.5455 2.99477C8.92449 2.99477 7.33023 3.40773 5.91295 4.19473C4.49567 4.98173 3.30207 6.11683 2.44466 7.49305C1.58726 8.86926 1.09429 10.4412 1.01224 12.0608C0.930185 13.6804 1.26174 15.2941 1.97566 16.75H4.12211Z" fill="black"/>
<path d="M10.6737 8.01144C9.27571 8.01144 7.6666 8.67138 6.79287 9.36774L7.58942 11.0474C8.28986 10.4064 9.42279 9.85869 10.4436 9.85869C11.4149 9.85869 11.9493 10.1821 11.9493 10.8377C11.9493 11.2747 11.594 11.5253 10.9227 11.5865C8.4049 11.8181 6.44775 12.6062 6.44775 14.5394C6.44775 16.0735 7.55301 17 9.37182 17C9.91858 17.0007 10.4557 16.8558 10.9279 16.58C11.4001 16.3043 11.7903 15.9077 12.0585 15.431V16.7494H14.3273V11.2223C14.3273 8.93944 12.74 8.01727 10.6737 8.01727V8.01144ZM10.0111 15.2271C9.28299 15.2271 8.8738 14.9124 8.8738 14.3967C8.8738 13.3186 10.1844 13.0593 11.9027 13.0593C11.9027 14.1869 11.1484 15.2271 10.0096 15.2271H10.0111Z" fill="black"/>
</svg>
